X:1
T:Somerset, CM
T:Somerset, CM
T:William Henry Hewlett (1873-1940)
T:Public Domain Courtesy of the Cyber Hymnal™
C:William Henry Hewlett (1873-1940)
Z:Public Domain
Z:Courtesy of the Cyber Hymnal™
%%score ( 1 2 ) ( 3 4 )
L:1/8
Q:1/4=110
M:4/4
K:Eb
V:1 treble 
V:2 treble 
V:3 bass 
V:4 bass 
V:1
 [B,E]2 | [EG]2 [FB]2 [Ee]2 [Gd]2 | [Ec]2 [FA]2 [DG]2 [DF]2 | E2 [FG]2 [Gc]2 [=Ad]2 | [FB]6 [Gc]2 | %5
 [Fc]2 [FA]2 [DG]2 [DF]2 | [EB]2 [EG]2 [CF]2 [CE]2 | C2 [B,E]2 [CF]2 [DF]2 | E6 |] %9
V:2
 x2 | x8 | x8 | E2 x6 | x8 | x8 | x8 | C2 x6 | E6 |] %9
V:3
 [E,G,]2 | [E,B,]2 [D,B,]2 [C,G,]2 [G,B,]2 | [A,C]2 [F,C]2 B,2 [B,,A,]2 | %3
 [C,G,]2 [D,=B,]2 [E,C]2 [F,E]2 | [B,D]6 [B,=E]2 | [A,F]2 [F,C]2 B,2 [A,B,]2 | %6
 [G,B,]2 [E,B,]2 [F,A,]2 [C,G,]2 | [A,,F,]2 [G,,G,]2 [F,,A,]2 [B,,A,]2 | [E,G,]6 |] %9
V:4
 x2 | x8 | x4 B,2 x2 | x8 | x8 | x8 | x8 | x8 | x6 |] %9

